src/img/decor/box_2.svg

<svg width="368" height="62" viewBox="0 0 368 62" fill="none" xmlns="http://www.w3.org/2000/svg">
<g opacity="0.4">
<path fill-rule="evenodd" clip-rule="evenodd" d="M367.433 19.0539C367.395 16.4741 366.884 14.1154 365.932 12.0147C364.54 8.84514 362.234 6.30219 358.975 4.42257C353.958 1.51104 345.387 0 333.232 0H332.865C320.706 0 312.139 1.4742 307.122 4.42257C303.825 6.33902 301.519 8.84514 300.165 12.0147C299.175 14.226 298.664 16.8058 298.664 19.791C298.664 22.7762 299.175 25.2087 300.203 27.1987C302.07 30.737 305.182 33.3903 308.66 34.9383C310.418 35.7491 312.653 36.339 315.326 36.818C317.999 37.2601 320.672 37.592 323.27 37.7763C325.871 37.9603 329.092 38.0709 332.937 38.2184L343.447 38.808C344.948 38.9555 345.72 39.103 347.035 39.582C348.393 40.0613 349.122 40.9459 349.232 42.3463C349.417 44.7788 347.697 46.4001 344.071 47.2109C341.727 47.7271 338.101 47.948 333.232 47.948H332.865C327.81 47.948 324.113 47.6903 321.769 47.2109C320.011 46.8426 318.729 46.1792 317.923 45.4053C317.156 44.6682 316.789 43.4518 316.789 41.683V41.3143H298.698V42.7884C298.736 45.479 299.25 47.8009 300.203 49.8278C301.594 53.0342 303.863 55.6138 307.159 57.5304C312.139 60.4419 320.744 61.8792 332.903 61.8792H333.269C345.205 61.8423 353.739 60.3682 358.9 57.3461C362.196 55.4298 364.503 52.8867 365.894 49.754C366.847 47.5059 367.361 44.8891 367.361 41.9776C367.361 39.0661 366.847 36.5968 365.784 34.6068C363.954 30.8845 360.767 28.3782 357.289 26.8672C355.569 26.0564 353.334 25.4668 350.661 24.9874C347.988 24.5085 345.387 24.1766 342.714 23.9557C340.116 23.7714 336.892 23.6239 332.975 23.587L322.649 22.9606C321.148 22.7393 320.487 22.6287 319.096 22.2235C317.742 21.8548 316.974 20.9705 316.789 19.6804C316.46 17.2479 317.999 15.6633 321.44 14.7788C323.746 14.226 327.372 13.9311 332.389 13.8943H333.156C338.211 13.9311 341.909 14.1891 344.253 14.7051C346.083 15.0736 347.402 15.7002 348.207 16.511C348.979 17.1744 349.342 18.4643 349.342 20.3437V20.6018H367.433V19.0539Z" fill="#AE9BA5"/>
<path fill-rule="evenodd" clip-rule="evenodd" d="M289.728 15.8076V1.80273H230.336V60.2912H289.728V46.2498H247.837V38.0309H286.325V23.9894H247.837V15.8076H289.728Z" fill="#AE9BA5"/>
<path fill-rule="evenodd" clip-rule="evenodd" d="M223.408 1.80273H200.156L186.205 17.7241L172.25 1.80273H149.035L174.594 31.0284L149.035 60.2912H172.25L186.205 44.3332L200.156 60.2912H223.408L197.849 31.0284L223.408 1.80273Z" fill="#AE9BA5"/>
<path fill-rule="evenodd" clip-rule="evenodd" d="M128.897 23.3305C129.666 25.173 130.032 27.8636 130.032 31.3278C130.032 34.7923 129.666 37.3719 128.897 39.1411C127.799 41.9788 125.895 44.19 123.075 45.7011C120.255 47.2121 116.154 47.9861 110.734 47.9861C100.957 47.9861 94.9153 44.964 92.5716 38.9198C91.7659 37.151 91.3633 34.5711 91.3633 31.1434C91.3633 27.7161 91.7659 25.0993 92.5716 23.3305C94.8786 17.2491 100.957 14.1903 110.734 14.1903C116.117 14.1903 120.182 14.9643 122.965 16.5859C125.785 18.2074 127.762 20.4187 128.897 23.2936V23.3305ZM145.778 45.4433C147.316 41.6842 148.085 36.9667 148.122 31.2909C148.158 25.6155 147.353 20.8242 145.778 16.9913C143.105 10.2837 138.125 5.60314 131.607 3.28131C125.162 0.959445 118.791 0.148618 110.734 0.29607C102.715 0.148618 96.27 0.959445 89.7519 3.28131C83.3072 5.60314 78.3268 10.2469 75.6538 16.9913C74.0425 20.8242 73.2734 25.5049 73.2734 31.1434C73.2734 36.7823 74.0791 41.4629 75.6538 45.259C78.3268 51.8927 83.3072 56.6102 89.7519 58.9321C96.27 61.2539 102.715 62.1016 110.734 61.991C114.799 62.0279 118.461 61.8435 121.793 61.4014C125.089 60.9958 128.385 60.2219 131.607 59.0795C138.162 56.8314 143.068 52.2614 145.742 45.4433H145.778Z" fill="#AE9BA5"/>
<path fill-rule="evenodd" clip-rule="evenodd" d="M42.038 15.8093C44.4184 15.8093 46.5054 17.4677 46.5054 19.9371C46.5054 22.4064 44.4551 23.9543 42.038 23.9543H17.4672V15.8093H42.038ZM44.0154 46.2147H17.5038V37.9958H44.0154C46.5421 37.9958 48.5561 39.4699 48.5561 42.1237C48.5561 44.5561 46.3957 46.1778 44.0154 46.1778V46.2147ZM62.5812 12.7872C61.7022 10.7233 60.4572 8.80685 58.7362 7.07469C57.0885 5.37936 55.1475 4.08944 52.9505 3.1312C50.7168 2.2467 47.7141 1.76758 43.9424 1.76758H0V60.2561H45.9197C49.7648 60.2561 52.8042 59.814 55.0378 58.8557C57.1615 57.9343 59.0659 56.6076 60.7135 54.9859C62.2516 53.4011 63.5332 51.5217 64.5586 49.1999C66.0966 45.4407 66.2796 41.6447 64.9613 37.7749C63.7162 33.9051 61.6655 31.1777 58.8825 29.7035C60.0179 28.8189 61.0065 27.6397 61.9219 26.055C62.8009 24.4702 63.3869 22.5536 63.6796 20.232C63.9726 17.9102 63.6432 15.4039 62.5812 12.824V12.7872Z" fill="#AE9BA5"/>
</g>
</svg>

<svg xmlns="http://www.w3.org/2000/svg" width="368" height="62" fill="none">
  <g fill="#AE9BA5" fill-rule="evenodd" clip-rule="evenodd" opacity=".4">
    <path d="M367.433 19.054c-.038-2.58-.549-4.939-1.501-7.04-1.392-3.169-3.698-5.712-6.957-7.591C353.958 1.51 345.387 0 333.232 0h-.367c-12.159 0-20.726 1.474-25.743 4.423-3.297 1.916-5.603 4.422-6.957 7.592-.99 2.211-1.501 4.79-1.501 7.776 0 2.985.511 5.418 1.539 7.408 1.867 3.538 4.979 6.191 8.457 7.74 1.758.81 3.993 1.4 6.666 1.879 2.673.442 5.346.774 7.944.958 2.601.184 5.822.295 9.667.442l10.51.59c1.501.148 2.273.295 3.588.774 1.358.48 2.087 1.364 2.197 2.764.185 2.433-1.535 4.054-5.161 4.865-2.344.516-5.97.737-10.839.737h-.367c-5.055 0-8.752-.258-11.096-.737-1.758-.368-3.04-1.032-3.846-1.806-.767-.737-1.134-1.953-1.134-3.722v-.369h-18.091v1.474c.038 2.691.552 5.013 1.505 7.04 1.391 3.206 3.66 5.786 6.956 7.702 4.98 2.912 13.585 4.35 25.744 4.35h.366c11.936-.038 20.47-1.512 25.631-4.534 3.296-1.916 5.603-4.46 6.994-7.592.953-2.248 1.467-4.865 1.467-7.776 0-2.912-.514-5.381-1.577-7.371-1.83-3.723-5.017-6.229-8.495-7.74-1.72-.81-3.955-1.4-6.628-1.88a83.714 83.714 0 0 0-7.947-1.031 158.96 158.96 0 0 0-9.739-.369l-10.326-.626c-1.501-.222-2.162-.332-3.553-.737-1.354-.37-2.122-1.253-2.307-2.544-.329-2.432 1.21-4.017 4.651-4.901 2.306-.553 5.932-.848 10.949-.885h.767c5.055.037 8.753.295 11.097.811 1.83.369 3.149.995 3.954 1.806.772.663 1.135 1.953 1.135 3.833v.258h18.091v-1.548ZM289.728 15.808V1.803h-59.392V60.29h59.392V46.25h-41.891v-8.22h38.488V23.99h-38.488v-8.182h41.891ZM223.408 1.803h-23.252l-13.951 15.921L172.25 1.803h-23.215l25.559 29.225-25.559 29.263h23.215l13.955-15.958 13.951 15.958h23.252l-25.559-29.263 25.559-29.225ZM128.897 23.33c.769 1.843 1.135 4.534 1.135 7.998 0 3.464-.366 6.044-1.135 7.813-1.098 2.838-3.002 5.049-5.822 6.56-2.82 1.511-6.921 2.285-12.341 2.285-9.777 0-15.819-3.022-18.162-9.066-.806-1.769-1.209-4.349-1.209-7.777 0-3.427.403-6.044 1.209-7.813 2.307-6.08 8.385-9.14 18.162-9.14 5.383 0 9.448.774 12.231 2.396 2.82 1.621 4.797 3.833 5.932 6.708v.037Zm16.881 22.113c1.538-3.759 2.307-8.476 2.344-14.152.036-5.675-.769-10.467-2.344-14.3-2.673-6.707-7.653-11.388-14.171-13.71C125.162.96 118.791.15 110.734.296 102.715.15 96.27.96 89.752 3.281c-6.445 2.322-11.425 6.966-14.098 13.71-1.611 3.833-2.38 8.514-2.38 14.152 0 5.64.805 10.32 2.38 14.116 2.673 6.634 7.653 11.351 14.098 13.673 6.518 2.322 12.963 3.17 20.982 3.059 4.065.037 7.727-.148 11.059-.59a46.32 46.32 0 0 0 9.814-2.322c6.555-2.248 11.461-6.818 14.135-13.636h.036ZM42.038 15.81c2.38 0 4.467 1.658 4.467 4.127 0 2.47-2.05 4.017-4.467 4.017h-24.57V15.81h24.57Zm1.977 30.405H17.504v-8.22h26.511c2.527 0 4.541 1.475 4.541 4.129 0 2.432-2.16 4.054-4.54 4.054v.037Zm18.566-33.428a18.043 18.043 0 0 0-3.845-5.712c-1.647-1.696-3.588-2.986-5.785-3.944-2.234-.884-5.237-1.363-9.009-1.363H0v58.488h45.92c3.845 0 6.884-.442 9.118-1.4 2.123-.922 4.028-2.248 5.676-3.87 1.538-1.585 2.82-3.464 3.845-5.786 1.538-3.76 1.72-7.555.402-11.425-1.245-3.87-3.295-6.597-6.078-8.072 1.135-.884 2.123-2.063 3.039-3.648.879-1.585 1.465-3.501 1.758-5.823.293-2.322-.037-4.828-1.099-7.408v-.037Z"/>
  </g>
</svg>
